icons/svg/weather-fog.svg

﻿<?xml version="1.0" encoding="utf-8"?>
<!DOCTYPE svg PUBLIC "-//W3C//DTD SVG 1.1//EN" "http://www.w3.org/Graphics/SVG/1.1/DTD/svg11.dtd">
<svg xmlns="http://www.w3.org/2000/svg" xmlns:xlink="http://www.w3.org/1999/xlink" version="1.1" baseProfile="full" width="24" height="24" viewBox="0 0 24.00 24.00" enable-background="new 0 0 24.00 24.00" xml:space="preserve">
	<path fill="#000000" fill-opacity="1" stroke-width="2" stroke-linejoin="round" d="M 3,15L 13,15C 13.5523,15 14,15.4477 14,16C 14,16.5523 13.5523,17 13,17L 3,17C 2.44772,17 2,16.5523 2,16C 2,15.4477 2.44772,15 3,15 Z M 16,15L 21,15C 21.5523,15 22,15.4477 22,16C 22,16.5523 21.5523,17 21,17L 16,17C 15.4477,17 15,16.5523 15,16C 15,15.4477 15.4477,15 16,15 Z M 1,12C 1,9.23919 3.23759,7.001 5.99817,7C 6.97773,4.65105 9.29605,3.00001 12,3.00001C 15.4328,3.00001 18.2441,5.66115 18.4835,9.03305L 19,9C 21.1928,9 22.9735,10.7645 22.9994,13L 21,13C 21,11.8954 20.1046,11 19,11L 17,11L 17,10C 17,7.23858 14.7614,5.00001 12,5.00001C 9.51284,5.00001 7.44982,6.816 7.06456,9.19438C 6.73372,9.06877 6.37489,9.00001 6,9.00001C 4.34315,9.00001 3,10.3432 3,12C 3,12.3506 3.06016,12.6872 3.17071,13L 1.10002,13L 1,12 Z M 3,19L 5,19C 5.55228,19 6,19.4477 6,20C 6,20.5523 5.55228,21 5,21L 3,21C 2.44772,21 2,20.5523 2,20C 2,19.4477 2.44772,19 3,19 Z M 8,19L 21,19C 21.5523,19 22,19.4477 22,20C 22,20.5523 21.5523,21 21,21L 8,21C 7.44771,21 7,20.5523 7,20C 7,19.4477 7.44771,19 8,19 Z "/>
</svg>

<svg xmlns="http://www.w3.org/2000/svg" version="1.1" baseProfile="full" width="24" height="24" viewBox="0 0 24.00 24.00" xml:space="preserve"><path fill="#000" fill-opacity="1" stroke-width="2" stroke-linejoin="round" d="M3 15h10c.552 0 1 .448 1 1s-.448 1-1 1H3c-.552 0-1-.448-1-1s.448-1 1-1zm13 0h5c.552 0 1 .448 1 1s-.448 1-1 1h-5c-.552 0-1-.448-1-1s.448-1 1-1zM1 12c0-2.76 2.238-5 4.998-5C6.978 4.65 9.296 3 12 3c3.433 0 6.244 2.66 6.483 6.033L19 9c2.193 0 3.974 1.764 4 4h-2c0-1.105-.895-2-2-2h-2v-1c0-2.76-2.24-5-5-5-2.487 0-4.55 1.816-4.935 4.194C6.735 9.07 6.375 9 6 9c-1.657 0-3 1.343-3 3 0 .35.06.687.17 1H1.1L1 12zm2 7h2c.552 0 1 .448 1 1s-.448 1-1 1H3c-.552 0-1-.448-1-1s.448-1 1-1zm5 0h13c.552 0 1 .448 1 1s-.448 1-1 1H8c-.552 0-1-.448-1-1s.448-1 1-1z"/></svg>
